client/public/assets/icons/utility/reminder.svg

<?xml version="1.0"?><svg xmlns="http://www.w3.org/2000/svg" width="52" height="52" viewBox="0 0 52 52"><path d="m64.7 19.1v0.4-0.4z"></path><path fill="#fff" d="m50.3 7.5c-0.6-3-3.1-5.5-6.2-5.9-2.2-0.3-4.2 0.4-5.8 1.6-0.5 0.4-0.4 1.1 0.2 1.4 3.7 2 6.9 4.8 9.4 8.2 0.3 0.5 1.1 0.5 1.4 0 1-1.5 1.4-3.3 1-5.3z m-36.8-2.8c0.5-0.2 0.6-1 0.2-1.4-1.5-1.3-3.6-2-5.8-1.6-3.1 0.4-5.7 2.8-6.2 5.8-0.3 2 0.1 3.8 1.1 5.3 0.3 0.5 1.1 0.5 1.4 0 2.4-3.3 5.5-6.2 9.3-8.1z m12.5 1.8c-12.1 0-22 9.9-22 22 0 4.9 1.6 9.4 4.3 13l-3.3 3.3c-1.3 1.3-1.3 3.3 0 4.6 0.7 0.7 1.5 1 2.3 1 0.8 0 1.6-0.3 2.3-1l3.3-3.3c3.7 2.7 8.2 4.3 13.1 4.3s9.4-1.6 13-4.3l3.3 3.3c0.7 0.7 1.5 1 2.4 1 0.8 0 1.6-0.3 2.3-1 1.3-1.3 1.3-3.3 0-4.6l-3.3-3.3c2.7-3.6 4.3-8.1 4.3-13 0-12.2-9.8-22-22-22z m-15.5 21.9c0-8.5 7-15.4 15.5-15.4s15.5 6.9 15.5 15.5-6.9 15.4-15.5 15.4-15.5-6.9-15.5-15.5z m18-0.9v-6.4c0-1.4-1.1-2.4-2.4-2.4s-2.4 1.1-2.4 2.4v7.3c0 0.7 0.2 1.3 0.7 1.7l5.7 5.7c0.5 0.5 1.1 0.7 1.7 0.7 0.6 0 1.2-0.2 1.7-0.7 1-1 1-2.5 0-3.4l-5-4.9z"></path></svg>

<?xml version="1.0" encoding="utf-8"?>
<!-- Generator: Adobe Illustrator 21.0.2, SVG Export Plug-In . SVG Version: 6.00 Build 0)  -->
<svg version="1.1" id="Layer_1" xmlns="http://www.w3.org/2000/svg" xmlns:xlink="http://www.w3.org/1999/xlink" x="0px" y="0px"
	 width="52px" height="52px" viewBox="0 0 52 52" enable-background="new 0 0 52 52" xml:space="preserve">
<path d="M64.7,19.1v0.4V19.1z"/>
<g>
	<path fill="#FFFFFF" d="M50.3,7.5c-0.6-3-3.1-5.5-6.2-5.9c-2.2-0.3-4.2,0.4-5.8,1.6c-0.5,0.4-0.4,1.1,0.2,1.4
		c3.7,2,6.9,4.8,9.4,8.2c0.3,0.5,1.1,0.5,1.4,0C50.3,11.3,50.7,9.5,50.3,7.5z M13.5,4.7c0.5-0.2,0.6-1,0.2-1.4
		c-1.5-1.3-3.6-2-5.8-1.6C4.8,2.1,2.2,4.5,1.7,7.5c-0.3,2,0.1,3.8,1.1,5.3c0.3,0.5,1.1,0.5,1.4,0C6.6,9.5,9.7,6.6,13.5,4.7z M26,6.5
		c-12.1,0-22,9.9-22,22c0,4.9,1.6,9.4,4.3,13L5,44.8c-1.3,1.3-1.3,3.3,0,4.6c0.7,0.7,1.5,1,2.3,1c0.8,0,1.6-0.3,2.3-1l3.3-3.3
		c3.7,2.7,8.2,4.3,13.1,4.3s9.4-1.6,13-4.3l3.3,3.3c0.7,0.7,1.5,1,2.4,1c0.8,0,1.6-0.3,2.3-1c1.3-1.3,1.3-3.3,0-4.6l-3.3-3.3
		c2.7-3.6,4.3-8.1,4.3-13C48,16.3,38.2,6.5,26,6.5z M10.5,28.4C10.5,19.9,17.5,13,26,13s15.5,6.9,15.5,15.5S34.6,43.9,26,43.9
		S10.5,37,10.5,28.4z M28.5,27.5v-6.4c0-1.4-1.1-2.4-2.4-2.4s-2.4,1.1-2.4,2.4v7.3c0,0.7,0.2,1.3,0.7,1.7l5.7,5.7
		c0.5,0.5,1.1,0.7,1.7,0.7c0.6,0,1.2-0.2,1.7-0.7c1-1,1-2.5,0-3.4L28.5,27.5z"/>
</g>
</svg>
